X: 5246
T: Broken Pledge, The
R: reel
M: 4/4
K: Amixolydian
|:aged cAA2|gedc BGG2|EAAB cBcd|eaag e2de|
gede g3a|bgab ged2|efed cBce|gedB BAA2:|
|:a2ea a2a2|cBce aged|gedB dega|bgab age2|
a2ea a2a2|cBce aged|c3d e3f|gedB BAA2:|

